X: 268
T: The Ashplant
R: reel
M: 4/4
K:Edor
GA | "Em" BE~E2 BAGA | BE~E2 "G"G2GA |"Em" BE~E2 BABd | "G"gedB "D"ABGA |
"Em" BE~E2 BAGA | BE~E2 "G"G2GA |"(Bm)" B2BA  (3Bcdef |"G" gedB "D" A2  ||
GA | "Em"B2eB fBeB | ~B2ed "G"BAGA |"Em" B2  eB  "Bm"fBef | "G"gedB "D"ABGA |
"Em" B2eB fBeB | ~B2ed "G"BAGA | "Bm"(3Bcd ef "G"~g3a | gedB "D"A2  ||


